assets/images/javascript-icon.svg

<svg xmlns="http://www.w3.org/2000/svg" width="40" height="40" viewBox="0 0 40 40">
  <g fill="none">
    <rect width="40" height="40" fill="#F7DF1E"/>
    <path fill="#000" d="M26.8698413,31.2501587 C27.6755556,32.5657143 28.7238095,33.5326984 30.5777778,33.5326984 C32.1352381,33.5326984 33.1301587,32.7542857 33.1301587,31.6787302 C33.1301587,30.3898413 32.1079365,29.9333333 30.3936508,29.1834921 L29.4539683,28.7803175 C26.7415873,27.6247619 24.9396825,26.1771429 24.9396825,23.1168254 C24.9396825,20.2977778 27.087619,18.151746 30.4444444,18.151746 C32.8342857,18.151746 34.552381,18.9834921 35.7904762,21.1612698 L32.8634921,23.0406349 C32.2190476,21.8850794 31.5238095,21.4298413 30.4444444,21.4298413 C29.3434921,21.4298413 28.6457143,22.128254 28.6457143,23.0406349 C28.6457143,24.168254 29.344127,24.6247619 30.9568254,25.3231746 L31.8965079,25.7257143 C35.0901587,27.0952381 36.8933333,28.4914286 36.8933333,31.6304762 C36.8933333,35.0146032 34.2349206,36.8685714 30.6647619,36.8685714 C27.1739683,36.8685714 24.9187302,35.2050794 23.8152381,33.0247619 L26.8698413,31.2501587 Z M13.591746,31.575873 C14.1822222,32.6234921 14.7193651,33.5092063 16.0107937,33.5092063 C17.2457143,33.5092063 18.0247619,33.0260317 18.0247619,31.1473016 L18.0247619,18.3663492 L21.7834921,18.3663492 L21.7834921,31.1980952 C21.7834921,35.0901587 19.5015873,36.8615873 16.1707937,36.8615873 C13.1612698,36.8615873 11.4184127,35.304127 10.5320635,33.428254 L13.591746,31.575873 Z"/>
  </g>
</svg>

<svg xmlns="http://www.w3.org/2000/svg" width="40" height="40" viewBox="0 0 40 40"><g fill="none"><path fill="#F7DF1E" d="M0 0h40v40H0z"/><path fill="#000" d="M26.87 31.25c.806 1.316 1.854 2.283 3.708 2.283 1.557 0 2.552-.779 2.552-1.854 0-1.29-1.022-1.746-2.736-2.496l-.94-.403c-2.712-1.155-4.514-2.603-4.514-5.663 0-2.82 2.148-4.965 5.504-4.965 2.39 0 4.108.831 5.346 3.01l-2.927 1.879c-.644-1.156-1.34-1.611-2.419-1.611-1.1 0-1.798.698-1.798 1.61 0 1.128.698 1.585 2.31 2.283l.94.403c3.194 1.37 4.997 2.765 4.997 5.904 0 3.385-2.658 5.239-6.228 5.239-3.491 0-5.746-1.664-6.85-3.844l3.055-1.775zm-13.278.326c.59 1.047 1.127 1.933 2.419 1.933 1.235 0 2.014-.483 2.014-2.362v-12.78h3.758v12.831c0 3.892-2.281 5.664-5.612 5.664-3.01 0-4.753-1.558-5.639-3.434l3.06-1.852z"/></g></svg>
